!!!SOCIAL_FUNCTION:	woman's dance songs
!!!PDT:	1909
!!!OTL: No_177_I_Have_Been_Waiting.krn
!!!REG: Great_Lakes
!!!LANG: Non-Tone
!!!LING_GROUP: Algonquin
**kern
*staff1
=1-
*clefG2
*k[b-e-a-d-g-]
*M2/4
4a-/
4a-/
=2
4a-/
4a-/
=3||
*M3/4
4a-/
4f/
4f/
=4||
*M2/4
2f/
=5
4f/
4d-/
=6
4d-/
4d-/
=7
4d-/
4B-/
=8
4d-/
4d-/
=9
4d-/
4d-/
=10
[2d-/
=11||
*M3/4
2.d-/]
=12
4f/
4f/
4f/
=13||
*M2/4
4f/
4d-/
=14
4f/
4f/
=15
4f/
4d-/
=16
4d-/
4d-/
=17
4d-/
4B-/
=18
4A-/
4A-/
=19
4A-/
4F/
=20
4A-/
4A-/
=21
4A-/
4A-/
=22
[2A-/
=23||
*M3/4
2.A-/]
*clefF4
=24||
4d-\
4d-\
4d-\
=25||
*M2/4
4d-\
4B-\
=26
4f\
4d-\
=27||
*M3/4
4d-\
4B-\
4B-\
=28||
*M2/4
4A-\
4A-\
=29
4B-\
4A-\
=30||
*M3/4
4F\
4F\
4E-\
=31||
*M2/4
4D-\
4D-\
=32||
*M3/4
2.D-\
=33
2.D-\
=34||
*M2/4
4d-\
4d-\
=35
4d-\
4d-\
=36
4d-\
4B-\
=37
4d-\
4d-\
=38
4d-\
4d-\
=39||
*M3/4
2.d-\
=40||
*M2/4
4f\
4f\
=41||
*M3/4
4f\
4f\
4d-\
=42||
*M2/4
4f\
4f\
=43
4f\
4d-\
=44
4d-\
4d-\
=45
4d-\
4B-\
=46
4A-\
4A-\
=47
4A-\
4F\
=48
4E-\
4A-\
=49
4A-\
4A-\
=50
4A-\
4A-\
=51||
*M3/4
2.A-\
=52||
*M2/4
4d-\
4d-\
=53
4d-\
4d-\
=54
4d-\
4B-\
=55
4f\
4d-\
=56||
*M3/4
4d-\
4B-\
4B-\
=57||
*M2/4
4A-\
4A-\
=58
4B-\
4A-\
=59||
*M3/4
4F\
4F\
4E-\
=60||
*M2/4
4D-\
4D-\
=61||
*M3/4
2.D-\
==
*-
